public/arrow.svg

<svg width="70" height="70" viewBox="0 0 70 70" fill="none" xmlns="http://www.w3.org/2000/svg">
<rect width="70" height="70" rx="35" transform="matrix(-1 0 0 1 70 0)" fill="white" fill-opacity="0.5"/>
<path d="M39.7322 0.030804C34.4094 -0.12516 29.2024 0.311121 24.1113 1.33964C23.6182 1.66421 22.3771 2.29861 20.3878 3.24282C11.7566 7.33581 5.73414 13.802 2.32042 22.6413C0.0509338 28.5279 -0.657104 35.268 0.657814 41.5593C0.986542 43.1442 1.34687 44.7881 1.73882 46.4911C3.55104 50.9719 6.06496 55.0712 9.2806 58.789C17.3092 66.975 27.1247 70.6781 38.7271 69.8983C42.263 69.4852 45.4681 68.6569 48.3424 67.4134C57.1 63.4216 63.2763 57.4191 66.8713 49.4059C70.8603 40.516 71.0942 29.8999 67.2316 21.3767C64.6734 15.7325 61.5842 11.4689 57.964 8.58563C55.7851 6.84474 54.3501 5.6708 53.6589 5.0638C51.5938 4.24183 49.2759 3.266 46.7051 2.13632C44.3597 1.1057 42.1914 0.631474 39.7322 0.030804ZM3.95774 35.0025C3.95774 26.7621 7.23063 18.8592 13.0564 13.0323C18.8822 7.20547 26.7837 3.93199 35.0226 3.93199C39.1021 3.93199 43.1416 4.73568 46.9106 6.29711C50.6795 7.85855 54.1041 10.1472 56.9887 13.0323C59.8733 15.9175 62.1616 19.3427 63.7227 23.1123C65.2839 26.882 66.0874 30.9222 66.0874 35.0025C66.0874 39.0827 65.2839 43.123 63.7227 46.8926C62.1616 50.6623 59.8733 54.0875 56.9887 56.9726C54.1041 59.8578 50.6795 62.1464 46.9106 63.7078C43.1416 65.2693 39.1021 66.073 35.0226 66.073C30.9431 66.073 26.9035 65.2693 23.1346 63.7078C19.3656 62.1464 15.941 59.8578 13.0564 56.9726C10.1718 54.0875 7.88355 50.6623 6.3224 46.8926C4.76125 43.123 3.95774 39.0827 3.95774 35.0025Z" fill="#065D44"/>
<path d="M43.1971 37.0388C43.2181 37.1063 43.216 37.1863 43.1907 37.279C43.1739 37.3254 43.1402 37.3739 43.0896 37.4245C39.9077 40.5775 36.7848 43.7242 33.7208 46.8645C32.8948 47.7076 32.8484 48.5906 33.5818 49.5138C33.7208 49.6908 33.8978 49.8236 34.1128 49.9121C35.04 50.2873 35.8555 50.1208 36.5593 49.4126L49.6705 36.3433C50.5682 35.4454 50.5682 34.5497 49.6705 33.6561L36.5719 20.5804C35.826 19.8385 34.9936 19.7184 34.0748 20.22C33.94 20.2917 33.822 20.3823 33.7208 20.4919C32.8316 21.4361 32.8463 22.3677 33.7651 23.2866L42.9379 32.4548C43.5111 33.0238 43.3973 33.2493 42.5965 33.1313C42.0655 33.047 41.526 33.009 40.9782 33.0175C34.5722 33.068 28.2652 33.0639 22.0573 33.0048C20.755 32.9922 20.0618 33.6371 19.9775 34.9396C19.969 35.0872 19.9775 35.2368 20.0028 35.3885C20.1587 36.396 20.7466 36.8997 21.7665 36.8997L43.0137 36.9124C43.0542 36.9123 43.0936 36.9245 43.1264 36.9471C43.1593 36.9698 43.184 37.0018 43.1971 37.0388Z" fill="#065D44"/>
</svg>

<svg xmlns="http://www.w3.org/2000/svg" width="70" height="70" fill="none" xmlns:v="https://vecta.io/nano"><rect width="70" height="70" rx="35" transform="matrix(-1 0 0 1 70 0)" fill="#fff" fill-opacity=".5"/><path d="M39.732.031c-5.323-.156-10.53.28-15.621 1.309-.493.325-1.734.959-3.724 1.903C11.757 7.336 5.734 13.802 2.32 22.641.051 28.528-.657 35.268.658 41.559l1.081 4.932c1.812 4.481 4.326 8.58 7.542 12.298 8.029 8.186 17.844 11.889 29.447 11.109 3.536-.413 6.741-1.241 9.615-2.485 8.758-3.992 14.934-9.994 18.529-18.007 3.989-8.89 4.223-19.506.36-28.029-2.558-5.644-5.647-9.908-9.268-12.791l-4.305-3.522a216.42 216.42 0 0 1-6.954-2.927C44.36 1.106 42.191.631 39.732.031zM3.958 35.003c0-8.24 3.273-16.143 9.099-21.97a31.06 31.06 0 0 1 33.854-6.735 31.05 31.05 0 0 1 10.078 6.735 31.07 31.07 0 0 1 6.734 10.08 31.08 31.08 0 0 1 2.365 11.89c0 4.08-.803 8.121-2.365 11.89a31.07 31.07 0 0 1-6.734 10.08 31.06 31.06 0 0 1-33.854 6.735 31.05 31.05 0 0 1-10.078-6.735 31.07 31.07 0 0 1-6.734-10.08 31.08 31.08 0 0 1-2.365-11.89zm39.239 2.036a.43.43 0 0 1-.006.24c-.017.046-.05.095-.101.145l-9.369 9.44c-.826.843-.872 1.726-.139 2.649a1.28 1.28 0 0 0 .531.398c.927.375 1.743.209 2.447-.5l13.111-13.069c.898-.898.898-1.794 0-2.687L36.572 20.58c-.746-.742-1.578-.862-2.497-.36-.135.072-.253.162-.354.272-.889.944-.874 1.876.044 2.795l9.173 9.168c.573.569.459.794-.341.677a9.45 9.45 0 0 0-1.618-.114c-6.406.05-12.713.046-18.921-.013-1.302-.013-1.995.632-2.08 1.935-.008.148 0 .297.025.449.156 1.008.744 1.511 1.764 1.511l21.247.013c.041 0 .08.012.113.035a.19.19 0 0 1 .071.092z" fill="#065d44"/></svg>
